X:1
T:The Altoona Freight Wreck
M:4/4
L:1/4
K:C
 A _A| G2 c e/2 g/2-| g2 g3/2 e/2| f A3| z4| G2 B/2 d3/2| f2 a/2 g3/2|\
 e4| z2 z A| G3/2 c/2- c e| g/2 g3/2- g3/2 e/2| f A3| z2 z A| G2 B/2 d3/2|\
 f2 A/2 B3/2| c4|
